X: 12269
T: Fairly Shot Of Her
R: jig
M: 6/8
K: Eminor
c2A ABA|cde ecA|c2A ABA|GAB dBG|
c2A ABA|cde ecA|c2A ABA|GAB dBG||
g3 e3|gag ecA|g3 e3|GAB dBG|
g3 e3|cdc ecA|g3 e3|GAB dBG||

